static/logos/outline-wordmark-color.svg

<svg width="100" height="31" viewBox="0 0 100 31" fill="none" xmlns="http://www.w3.org/2000/svg">
<g clip-path="url(#clip0_1_1774)">
<path d="M15.2381 27.4286V28.1717C15.2381 29.2236 14.3853 30.0765 13.3333 30.0765C13.0062 30.0765 12.6846 29.9922 12.3995 29.8318L0.970933 23.4032C0.371166 23.0659 0 22.4312 0 21.7431V8.73302C0 8.04488 0.371166 7.41024 0.970933 7.07288L12.3995 0.644301C13.3164 0.128561 14.4777 0.453742 14.9935 1.37061C15.1538 1.65572 15.2381 1.97733 15.2381 2.30445V3.04759L16.5955 2.64036C17.6031 2.33808 18.665 2.90986 18.9673 3.91747C19.0206 4.09503 19.0476 4.27941 19.0476 4.46479V5.23807L20.7161 5.02951C21.76 4.89903 22.712 5.63946 22.8425 6.68331C22.8522 6.76168 22.8571 6.84058 22.8571 6.91956V23.5566C22.8571 24.6086 22.0044 25.4613 20.9524 25.4613C20.8734 25.4613 20.7945 25.4564 20.7161 25.4467L19.0476 25.2381V26.0113C19.0476 27.0633 18.1949 27.9161 17.1429 27.9161C16.9575 27.9161 16.773 27.889 16.5955 27.8358L15.2381 27.4286ZM15.2381 25.4399L17.1429 26.0113V4.46479L15.2381 5.03622V25.4399ZM19.0476 7.15766V23.3185L20.9524 23.5566V6.91956L19.0476 7.15766ZM0 21.1756V9.30052V21.1756ZM1.90476 8.73302V21.7431L13.3333 28.1717V2.30445L1.90476 8.73302ZM3.80952 10L5.71429 9.04759V21.4286L3.80952 20.4762V10Z" fill="black"/>
<path d="M36.9809 23.085C35.8416 23.085 34.8541 22.8344 34.0187 22.333C33.1832 21.8317 32.535 21.1305 32.0742 20.2291C31.6185 19.3278 31.3906 18.2746 31.3906 17.0694C31.3906 15.8642 31.6185 14.8085 32.0742 13.9021C32.535 12.9957 33.1832 12.2918 34.0187 11.7905C34.8541 11.2892 35.8416 11.0386 36.9809 11.0386C38.1202 11.0386 39.1077 11.2892 39.9432 11.7905C40.7787 12.2918 41.4243 12.9957 41.8801 13.9021C42.3408 14.8085 42.5712 15.8642 42.5712 17.0694C42.5712 18.2746 42.3408 19.3278 41.8801 20.2291C41.4243 21.1305 40.7787 21.8317 39.9432 22.333C39.1077 22.8344 38.1202 23.085 36.9809 23.085ZM36.9961 20.8823C37.6139 20.8823 38.1303 20.7127 38.5456 20.3734C38.9608 20.029 39.2697 19.5683 39.4722 18.991C39.6799 18.4138 39.7837 17.7707 39.7837 17.0618C39.7837 16.3478 39.6799 15.7022 39.4722 15.125C39.2697 14.5426 38.9608 14.0793 38.5456 13.735C38.1303 13.3907 37.6139 13.2185 36.9961 13.2185C36.3632 13.2185 35.8365 13.3907 35.4162 13.735C35.001 14.0793 34.6897 14.5426 34.4821 15.125C34.2795 15.7022 34.1782 16.3478 34.1782 17.0618C34.1782 17.7707 34.2795 18.4138 34.4821 18.991C34.6897 19.5683 35.001 20.029 35.4162 20.3734C35.8365 20.7127 36.3632 20.8823 36.9961 20.8823ZM51.9131 17.9505V11.1905H54.6627V22.8571H51.9967V20.7836H51.8752C51.6119 21.4368 51.1789 21.971 50.5763 22.3862C49.9788 22.8014 49.2421 23.009 48.3661 23.009C47.6014 23.009 46.9254 22.8394 46.3381 22.5002C45.7557 22.1558 45.3 21.657 44.9708 21.0038C44.6417 20.3455 44.4771 19.5506 44.4771 18.6189V11.1905H47.2267V18.1935C47.2267 18.9328 47.4293 19.5202 47.8343 19.9557C48.2395 20.3911 48.7711 20.6089 49.4294 20.6089C49.8345 20.6089 50.2269 20.5101 50.6067 20.3127C50.9864 20.1151 51.2979 19.8215 51.5409 19.4316C51.7891 19.0366 51.9131 18.543 51.9131 17.9505ZM62.888 11.1905V13.3172H56.1813V11.1905H62.888ZM57.8371 8.39533H60.5866V19.348C60.5866 19.7177 60.6423 20.0012 60.7538 20.1988C60.8702 20.3911 61.0221 20.5228 61.2095 20.5937C61.3968 20.6646 61.6044 20.7 61.8323 20.7C62.0044 20.7 62.1615 20.6873 62.3032 20.662C62.4501 20.6368 62.5615 20.6139 62.6374 20.5937L63.1007 22.7432C62.9539 22.7938 62.7438 22.8495 62.4703 22.9103C62.202 22.971 61.8728 23.0065 61.4829 23.0167C60.7942 23.0369 60.174 22.9331 59.6221 22.7052C59.0701 22.4723 58.6321 22.1128 58.308 21.6267C57.989 21.1406 57.8321 20.533 57.8371 19.8037V8.39533ZM67.7601 7.30159V22.8571H65.0104V7.30159H67.7601ZM70.1597 22.8571V11.1905H72.9093V22.8571H70.1597ZM71.5421 9.53467C71.1066 9.53467 70.7319 9.39034 70.418 9.10171C70.104 8.80803 69.947 8.4561 69.947 8.04594C69.947 7.63072 70.104 7.2788 70.418 6.99017C70.7319 6.69648 71.1066 6.54964 71.5421 6.54964C71.9826 6.54964 72.3573 6.69648 72.6662 6.99017C72.9802 7.2788 73.1371 7.63072 73.1371 8.04594C73.1371 8.4561 72.9802 8.80803 72.6662 9.10171C72.3573 9.39034 71.9826 9.53467 71.5421 9.53467ZM78.0584 16.0212V22.8571H75.3089V11.1905H77.9369V13.1729H78.0737C78.3421 12.5197 78.7699 12.0007 79.3573 11.6158C79.9498 11.231 80.6814 11.0386 81.5523 11.0386C82.3575 11.0386 83.0588 11.2108 83.6563 11.555C84.2589 11.8994 84.7247 12.3982 85.0539 13.0513C85.3881 13.7046 85.5526 14.497 85.5476 15.4288V22.8571H82.7981V15.8541C82.7981 15.0743 82.5955 14.4641 82.1904 14.0236C81.7903 13.583 81.2359 13.3628 80.527 13.3628C80.046 13.3628 79.6181 13.4691 79.2434 13.6818C78.8737 13.8894 78.5825 14.1907 78.3699 14.5856C78.1622 14.9807 78.0584 15.4591 78.0584 16.0212ZM93.0799 23.085C91.9101 23.085 90.9 22.8419 90.0493 22.3558C89.2037 21.8647 88.553 21.171 88.0973 20.2747C87.6416 19.3733 87.4137 18.3125 87.4137 17.0922C87.4137 15.8921 87.6416 14.8389 88.0973 13.9325C88.5581 13.021 89.2011 12.3121 90.0265 11.8057C90.8519 11.2943 91.8216 11.0386 92.9356 11.0386C93.6546 11.0386 94.3332 11.155 94.9712 11.388C95.6144 11.6158 96.1811 11.9703 96.6725 12.4513C97.1687 12.9324 97.5582 13.545 97.8421 14.2894C98.1259 15.0288 98.2678 15.9098 98.2678 16.9327V17.7758H88.7049V15.9225H95.6316C95.6268 15.3958 95.5125 14.9274 95.2906 14.5173C95.0674 14.1021 94.756 13.7754 94.356 13.5375C93.961 13.2995 93.5002 13.1805 92.9736 13.1805C92.4115 13.1805 91.9178 13.3172 91.4924 13.5907C91.0671 13.859 90.7354 14.2135 90.4974 14.654C90.2645 15.0895 90.1455 15.568 90.1404 16.0895V17.7074C90.1404 18.3859 90.2645 18.9683 90.5126 19.4544C90.7607 19.9354 91.1076 20.305 91.5532 20.5633C91.9988 20.8165 92.5203 20.943 93.1179 20.943C93.5179 20.943 93.88 20.8873 94.2041 20.776C94.5282 20.6595 94.8091 20.4899 95.0471 20.267C95.2849 20.0443 95.4649 19.7683 95.5868 19.4391L98.1535 19.7278C97.9916 20.4063 97.683 20.9988 97.2268 21.5051C96.7763 22.0065 96.1992 22.3964 95.4954 22.6749C94.7914 22.9483 93.9863 23.085 93.0799 23.085Z" fill="black"/>
</g>
<defs>
<clipPath id="clip0_1_1774">
<rect width="100" height="30.4762" fill="white"/>
</clipPath>
</defs>
</svg>

<svg xmlns="http://www.w3.org/2000/svg" width="206.452" height="64" fill="none" viewBox="0 0 100 31"><g fill="#000" clip-path="url(#a)"><path d="M15.238 27.429v.743a1.905 1.905 0 0 1-2.838 1.66L.97 23.403c-.599-.337-.97-.972-.97-1.66V8.733c0-.688.371-1.323.97-1.66L12.4.644a1.905 1.905 0 0 1 2.838 1.66v.744l1.358-.408a1.905 1.905 0 0 1 2.452 1.825v.773l1.668-.208a1.905 1.905 0 0 1 2.141 1.89v16.637a1.905 1.905 0 0 1-2.14 1.89l-1.67-.209v.773a1.905 1.905 0 0 1-2.451 1.825l-1.358-.407Zm0-1.99 1.905.572V4.465l-1.905.571V25.44Zm3.81-18.281v16.16l1.904.239V6.92l-1.904.238ZM0 21.176V9.3v11.875ZM1.905 8.733v13.01l11.428 6.429V2.304L1.905 8.733ZM3.81 10l1.904-.952v12.38l-1.904-.952V10ZM36.98 23.085c-1.138 0-2.126-.25-2.961-.752a5.106 5.106 0 0 1-1.945-2.104c-.455-.901-.683-1.954-.683-3.16 0-1.205.228-2.26.683-3.167.461-.906 1.11-1.61 1.945-2.111.835-.502 1.823-.752 2.962-.752 1.14 0 2.127.25 2.962.752a5.046 5.046 0 0 1 1.937 2.111c.46.907.691 1.962.691 3.167 0 1.206-.23 2.259-.69 3.16a5.056 5.056 0 0 1-1.938 2.104c-.835.501-1.823.752-2.962.752Zm.016-2.203c.618 0 1.134-.17 1.55-.509.415-.344.724-.805.926-1.382.208-.577.312-1.22.312-1.93 0-.713-.104-1.359-.312-1.936-.202-.582-.511-1.046-.926-1.39-.416-.344-.932-.516-1.55-.516-.633 0-1.16.172-1.58.516-.415.344-.726.808-.934 1.39-.203.577-.304 1.223-.304 1.937 0 .709.102 1.352.304 1.929.208.577.519 1.038.934 1.382.42.34.947.51 1.58.51Zm14.917-2.931v-6.76h2.75v11.666h-2.666v-2.073h-.122a3.508 3.508 0 0 1-1.299 1.602c-.597.415-1.334.623-2.21.623-.765 0-1.44-.17-2.028-.509-.582-.344-1.038-.843-1.367-1.496-.33-.659-.494-1.453-.494-2.385V11.19h2.75v7.002c0 .74.202 1.327.607 1.763.405.435.937.653 1.595.653.405 0 .798-.099 1.178-.296.38-.198.69-.491.934-.881.248-.395.372-.889.372-1.481Zm10.975-6.76v2.126h-6.707V11.19h6.707Zm-5.05-2.796h2.749v10.953c0 .37.055.653.167.85a.902.902 0 0 0 .456.396c.187.07.394.106.622.106.172 0 .33-.013.471-.038.147-.025.259-.048.334-.068l.464 2.15c-.147.05-.357.105-.63.166-.269.061-.598.096-.988.107-.689.02-1.309-.084-1.86-.312a2.894 2.894 0 0 1-1.315-1.078c-.319-.486-.476-1.094-.47-1.823V8.395Zm9.922-1.093v15.555h-2.75V7.302h2.75Zm2.4 15.555V11.191h2.75v11.666h-2.75Zm1.382-13.322c-.435 0-.81-.145-1.124-.433a1.395 1.395 0 0 1-.471-1.056c0-.415.157-.767.471-1.056.314-.294.689-.44 1.124-.44.44 0 .815.146 1.124.44.314.289.471.64.471 1.056 0 .41-.157.762-.47 1.056a1.587 1.587 0 0 1-1.125.433Zm6.516 6.486v6.836h-2.75V11.191h2.629v1.982h.137a3.335 3.335 0 0 1 1.283-1.557c.593-.385 1.324-.577 2.195-.577.805 0 1.507.172 2.104.516a3.48 3.48 0 0 1 1.398 1.496c.334.654.499 1.446.494 2.378v7.428h-2.75v-7.003c0-.78-.203-1.39-.608-1.83-.4-.441-.954-.661-1.663-.661-.481 0-.909.106-1.284.319-.37.207-.66.509-.873.904-.208.395-.312.873-.312 1.435Zm15.022 7.064c-1.17 0-2.18-.243-3.03-.73a4.937 4.937 0 0 1-1.953-2.08c-.455-.902-.683-1.962-.683-3.183 0-1.2.228-2.253.683-3.16.461-.911 1.104-1.62 1.93-2.126.825-.512 1.795-.767 2.909-.767.719 0 1.397.116 2.035.349a4.6 4.6 0 0 1 1.701 1.063c.497.481.886 1.094 1.17 1.838.284.74.426 1.62.426 2.644v.843h-9.563v-1.854h6.927a2.964 2.964 0 0 0-.341-1.405 2.489 2.489 0 0 0-.935-.98c-.395-.238-.856-.357-1.382-.357-.563 0-1.056.137-1.482.41a2.826 2.826 0 0 0-.995 1.064 3.06 3.06 0 0 0-.357 1.436v1.617c0 .679.124 1.261.373 1.747.248.481.595.851 1.04 1.11.446.253.967.379 1.565.379.4 0 .762-.056 1.086-.167.324-.116.605-.286.843-.509.238-.223.418-.499.54-.828l2.566.289a3.996 3.996 0 0 1-.926 1.777c-.45.502-1.028.891-1.732 1.17-.704.273-1.509.41-2.415.41Z"/></g><defs><clipPath id="a"><path fill="#fff" d="M0 0h100v30.476H0z"/></clipPath></defs></svg>
